X:1
T: With a Hundred Pipers
C:
R:Jig
Q:180
K:F
M:6/8
L:1/16
FG|:A4C2 C2A,2C2|D4F2 F4d2|c4A2 A2G2F2|A4G2 G2F2G2|
A4C2 C2A,2C2|D4F2 F4d2|c4A2 G2F2G2|F4F2 F4FG
c4c2 c2A2c2|d4f2 f4d2|c4A2 A2G2F2|A4G2 G4AB|
c4c2 c2d2e2|f4f2 f2e2d2|c4A2 G2F2G2|1F4F2 F4AB:|2F4F2F4||
